!!!!SEGMENT: Arc3013-Il_bianco_e_dolce_cigno.krn
!!!id: Arc3013
!!!AGN: Madrigal
!!!voices: 4
!!!COM: Jacques Arcadelt
!!!OTL: Il bianco e dolce cigno
**kern	**text	**kern	**text	**kern	**text	**kern	**text
*part4	*part4	*part3	*part3	*part2	*part2	*part1	*part1
*staff4	*staff4	*staff3	*staff3	*staff2	*staff2	*staff1	*staff1
*I"Bassus	*	*I"Tenor	*	*I"Altus	*	*I"Superius	*
*I'B	*	*I'T	*	*I'A	*	*I'S	*
*clefF4	*	*clefGv2	*	*clefGv2	*	*clefG2	*
*k[b-]	*	*k[b-]	*	*k[b-]	*	*k[b-]	*
*F:	*	*F:	*	*F:	*	*F:	*
*M2/1	*	*M2/1	*	*M2/1	*	*M2/1	*
*met(C|)	*	*met(C|)	*	*met(C|)	*	*met(C|)	*
0r	.	1F	Il	1c	Il	1f	Il
.	.	[1B-y	bian-	[1d	bian-	[1f	bian-
=1	=1	=1	=1	=1	=1	=1	=1
0r	.	2B-]	.	2d]	.	2f]	.
.	.	2A	-co e	2c	-co e	2f	-co e
.	.	2B-y	dol-	2d	dol-	2g	dol-
.	.	2c	-ce	2e	-ce	2g	-ce
=2	=2	=2	=2	=2	=2	=2	=2
0r	.	2.F	ci-	2.f	ci-	1a	ci-
.	.	4G	.	8eL	.	.	.
.	.	.	.	8dJ	.	.	.
.	.	2A	-gno	2c	-gno	2f	-gno
.	.	2B-y	can-	2d	can-	2f	can-
=3	=3	=3	=3	=3	=3	=3	=3
0r	.	2B-y	-tan-	4d	-tan-	2g	-tan-
.	.	.	.	4c	.	.	.
.	.	2A	-do	1f	-do	2a	-do
.	.	1G	mo-	.	.	1b-y	mo-
.	.	.	.	2e	mo-	.	.
=4	=4	=4	=4	=4	=4	=4	=4
1r	.	1F	-re,	1f	-re,	1a	-re,
1F	Et	1A	Et	1c	Et	2r	.
.	.	.	.	.	.	2f	Et
=5	=5	=5	=5	=5	=5	=5	=5
2F	io	2A	io	2c	io	2f	io
2F	pian-	2A	pian-	2c	pian-	2f	pian-
1E-X	-gen-	1B-y	-gen-	1e-X	-gen-	1g	-gen-
=6	=6	=6	=6	=6	=6	=6	=6
1E-i	-do	1G	-do	1B-y	-do	1e-X	-do
1C	giung'	1G	giung'	1e-i	giung'	2r	.
.	.	.	.	.	.	2e-i	giung'
=7	=7	=7	=7	=7	=7	=7	=7
2BB-y	al-	2B-y	al-	2d	al	2f	al
1F	-fin	1A	-fin	1c	fin	1f	fin
2C	del	[2G	del	2c	del	2e	del
=8	=8	=8	=8	=8	=8	=8	=8
2D	vi-	4G]	.	2A	vi-	2d	vi-
.	.	4F	vi-	.	.	.	.
2BB-y	-ver	1F	-ver	2B-y	-ver	2d	-ver
1C	mi-	.	.	1G	mi-	1c	mi-
.	.	2E	mi-	.	.	.	.
=9	=9	=9	=9	=9	=9	=9	=9
1FF	-o,	1F	-o,	1A	-o,	1c	-o,
1F	et	1A	et	1c	et	2r	.
.	.	.	.	.	.	2f	et
=10	=10	=10	=10	=10	=10	=10	=10
2F	io	2A	io	2c	io	2f	io
2F	pian-	2A	pian-	2c	pian-	2f	pian-
1E-X	-gen-	1B-y	-gen-	1e-X	-gen-	1g	-gen-
=11	=11	=11	=11	=11	=11	=11	=11
1E-i	-do,	1B-y	-do,	1e-i	-do	1g	-do
1C	giung'	1c	giung'	1e-i	giung'	2r	.
.	.	.	.	.	.	2g	giung'
=12	=12	=12	=12	=12	=12	=12	=12
2BB-y	al	2d	al	2f	al	2b-y	al
1F	fin	1c	fin	1f	fin	1a	fin
2C	del	2c	del	2e	del	[2g	del
=13	=13	=13	=13	=13	=13	=13	=13
2D	vi-	2A	vi-	2d	vi-	4g]	.
.	.	.	.	.	.	4f	vi-
2BB-y	-ver	2B-y	-ver	2d	-ver	1f	-ver
1C	mi-	1G	mi-	1c	mi-	.	.
.	.	.	.	.	.	2e	mi-
=14	=14	=14	=14	=14	=14	=14	=14
0FF	-o,	1F	-o,	1A	-o,	1f	-o,
.	.	2r	.	2r	.	2r	.
.	.	2F	stran'	2c	stran'	2f	stran'
=15	=15	=15	=15	=15	=15	=15	=15
1r	.	2.B-y	e	2.d	e	2f	e
.	.	.	.	.	.	2f	di-
.	.	4A	di-	4c	di-	.	.
2r	.	2B-y	-ver-	2d	-ver-	2g	-ver-
2C	stran'	[2c	-sa	2e	-sa	2g	-sa
=16	=16	=16	=16	=16	=16	=16	=16
2.F	e	4c]	.	2f	sor-	2a	sor-
.	.	4B-y	.	.	.	.	.
.	.	4A	sor-	2f	-te,	2a	-te,
4E	di-	4G	.	.	.	.	.
2D	-ver-	1F	-te,	2r	.	2r	.
2D	-sa	.	.	[2f	ch'ei	2a	ch'ei
=17	=17	=17	=17	=17	=17	=17	=17
2C	sor-	2r	.	2f]	.	2a	mo-
2C	-te,	2c	ch'ei	1e	mo-	2g	-re
1r	.	2c	mo-	.	.	2a	scon-
.	.	2B-y	-re	2d	-re	2b-y	-so-
=18	=18	=18	=18	=18	=18	=18	=18
0r	.	2c	scon-	2e	scon-	2a	-la-
.	.	2d	-so-	2f	-so-	2a	-to,
.	.	2c	-la-	2e	-la-	2r	.
.	.	2c	-to,	2e	-to,	2a	et
=19	=19	=19	=19	=19	=19	=19	=19
0r	.	2r	.	2r	.	2a	io
.	.	2c	et	2e	et	2g	mo-
.	.	2c	io	2e	io	2a	-ro
.	.	2B-y	mo-	2d	mo-	2b-y	be-
=20	=20	=20	=20	=20	=20	=20	=20
2r	.	1c	-ro,	1e	-ro	2.a	-a-
2A	et	.	.	.	.	.	.
.	.	.	.	.	.	4b-y	.
2A	io	2r	.	2f	be-	4cc	.
.	.	.	.	.	.	4a	.
2G	mo-	2d	et	2g	-a-	[2b-y	.
=21	=21	=21	=21	=21	=21	=21	=21
2A	-ro	2d	io	2e	.	4b-]	.
.	.	.	.	.	.	4a	.
2A	be-	2c	mo-	2.f	.	1a	.
1B-y	-a-	2d	-ro	.	.	.	.
.	.	.	.	4e	.	.	.
.	.	2d	be-	[2d	.	2g	.
=22	=22	=22	=22	=22	=22	=22	=22
0A	.	0e	-a-	2d]	.	[0a	-to,
.	.	.	.	4c#i	.	.	.
.	.	.	.	4BnXi	.	.	.
.	.	.	.	1c#i	.	.	.
=23	=23	=23	=23	=23	=23	=23	=23
1D	-to,	1f	-to,	1d	-to,	1a]	.
2r	.	2r	.	2r	.	1a	mor-
2D	mor-	2d	mor-	2f	mor-	.	.
=24	=24	=24	=24	=24	=24	=24	=24
2D	-te	2d	-te	2f	-te	2a	-te
2D	che	2d	che	2f	che	2a	che
2F	nel	2c	riel	2f	nel	2a	nel
2F	mo-	2c	mo-	2f	mo-	2a	mo-
=25	=25	=25	=25	=25	=25	=25	=25
1BB-y	-ri-	1d	-ri-	1f	-ri-	1b-y	-ri-
1C	-re,	1c	-re,	1e	-re,	[1g	-re,
=26	=26	=26	=26	=26	=26	=26	=26
2r	.	2r	.	2r	.	2g]	.
2C	m'em-	2c	m'em-	2e	m'em-	2g	m'em-
2C	-pie	2c	-pie	2e	-pie	2a	-pie
2C	di	2c	di	2c	di	2g	di
=27	=27	=27	=27	=27	=27	=27	=27
2D	gio-	2A	gio-	2c	gio-	2f	gio-
2D	-ia	2F	-ia	2B-y	-ia	2f	-ia
2C	tutt'	2G	tutt'	2c	tutt'	2e	tutt'
2D	e	2F	e	2A	e	2f	e
=28	=28	=28	=28	=28	=28	=28	=28
2BB-y	di	2.B-y	di	2G	di	2d	di
2BB-y	de-	.	.	1F	de-	2d	de-
.	.	4A	de-	.	.	.	.
1C	-si-	1G	-si-	.	.	1c	-si-
.	.	.	.	2E	-si-	.	.
=29	=29	=29	=29	=29	=29	=29	=29
1FF	-re,	1A	-re,	1F	-re,	1c	-re,
1C	se	2r	.	1G	se	1e	se
.	.	2c	se	.	.	.	.
=30	=30	=30	=30	=30	=30	=30	=30
2C	nel	2c	nel	2G	nel	2e	nel
2C	mo-	2c	mo-	2G	mo-	2e	mo-
[1BB-y	-rir',	[1d	-rir',	[1B-y	-rir',	[1f	-rir',
=31	=31	=31	=31	=31	=31	=31	=31
2BB-]	.	2d]	.	2B-]	.	2f]	.
2BB-y	al-	2B-y	al-	2F	al-	2d	al-
2BB-y	-tro	2d	-tro	2.B-y	-tro	2f	-tro
2BB-y	do-	2d	do-	.	.	2d	do-
.	.	.	.	4A	do-	.	.
=32	=32	=32	=32	=32	=32	=32	=32
2C	-lor	2c	-lor	2G	-lor	2e	-lor
2C	non	2c	non	1c	non	2e	non
1D	sen-	1F	sen-	.	.	1f	sen-
.	.	.	.	2BnXi	sen-	.	.
=33	=33	=33	=33	=33	=33	=33	=33
0C	-to,	1G	-to,	2c	-to,	[0e	-to,
.	.	.	.	2G	di	.	.
.	.	2r	.	2.c	mil-	.	.
.	.	2G	di	.	.	.	.
.	.	.	.	4B-y	-le	.	.
=34	=34	=34	=34	=34	=34	=34	=34
2r	.	2.c	mil-	2A	mort'	1e]	.
2C	di	.	.	2G	il	.	.
.	.	4B-y	-le	.	.	.	.
2.F	mil-	2.A	mort'	2F	di,	1r	.
.	.	.	.	2c	di	.	.
4E	-le	4G	il	.	.	.	.
=35	=35	=35	=35	=35	=35	=35	=35
2.D	mort'	2F	di,	1.f	mil-	2r	.
.	.	2A	di	.	.	2f	di
4C	il	.	.	.	.	.	.
[1BB-y	di,	2.d	mil-	.	.	2.b-y	mil-
.	.	.	.	2e	-le	.	.
.	.	4c	-le	.	.	4a	-le
=36	=36	=36	=36	=36	=36	=36	=36
1BB-]	.	2.B-y	mort'	2d	mort'	2g	mort'
.	.	.	.	2d	il	2f	il
.	.	4A	il	.	.	.	.
1C	sa-	2G	di	1c	di,	2e	di
.	.	2c	sa-	.	.	2g	sa-
=37	=37	=37	=37	=37	=37	=37	=37
2D	-rei	2A	-rei	2r	.	4g	-rei
.	.	.	.	.	.	4f	con-
2BB-y	con-	2B-y	con-	2F	di	1f	-ten-
1C	-ten-	2G	-ten-	2.c	mil-	.	.
.	.	4G	-to,	.	.	2e	.
.	.	4G	di	4B-y	-le	.	.
=38	=38	=38	=38	=38	=38	=38	=38
2FF	-to,	2.c	mil-	2.A	mort'	0f	-to,
2FF	di	.	.	.	.	.	.
.	.	4B-y	-le	4G	il	.	.
2.F	mil-	2.A	mort'	2F	di,	.	.
.	.	.	.	2c	di	.	.
4E	-le	4G	il	.	.	.	.
=39	=39	=39	=39	=39	=39	=39	=39
2.D	mort'	2F	di,	1.f	mil-	2r	.
.	.	2A	di	.	.	2f	di
4C	il	.	.	.	.	.	.
[1BB-y	di	2.d	mil-	.	.	2.b-y	mil-
.	.	.	.	2e	-le	.	.
.	.	4c	-le	.	.	4a	-le
=40	=40	=40	=40	=40	=40	=40	=40
1BB-]	.	2.B-y	mort'	2d	mort'	2g	mort'
.	.	.	.	2d	il	2f	il
.	.	4A	il	.	.	.	.
1C	sa-	2G	di	1c	di,	2e	di,
.	.	2c	sa-	.	.	2g	sa
=41	=41	=41	=41	=41	=41	=41	=41
2D	-rei	2A	-rei	2r	.	4g	rei
.	.	.	.	.	.	4f	con-
2BB-y	con-	2B-y	con-	2F	di	1f	-ten-
2C	-ten-	1G	-ten-	2.c	mil-	.	.
4C	-to,	.	.	.	.	2e	.
4C	di	.	.	4B-y	-le	.	.
=42	=42	=42	=42	=42	=42	=42	=42
2.F	mil-	2F	-to,	2.A	mort'	[0fl	-to.
.	.	2c	di	.	.	.	.
4E	-le	.	.	4G	il	.	.
2.D	mort'	2.f	mil-	2F	di	.	.
.	.	.	.	2A	sa-	.	.
4C	il	4e	-le	.	.	.	.
=43	=43	=43	=43	=43	=43	=43	=43
1BB-y	di	2.d	mort'	2.B-y	-rei	0f_	.
.	.	4c	il	4c	.	.	.
2r	.	2.B-y	di	2.d	con-	.	.
2BB-y	sa-	.	.	.	.	.	.
.	.	4c	sa-	4c	.	.	.
=44	=44	=44	=44	=44	=44	=44	=44
2BB-y	-rei	2d	-rei	2B-y	.	0f_	.
2AA	con-	2c	con-	2c	.	.	.
1BB-y	-ten-	1B-y	-ten-	1d	-ten-	.	.
=45	=45	=45	=45	=45	=45	=45	=45
00FFl	-to.	00Al	-to.	00cl	-to.	00f]	.
==	==	==	==	==	==	==	==
*-	*-	*-	*-	*-	*-	*-	*-
!!!system-decoration: [*]
!!!RDF**kern: i = editorial accidental
!!!RDF**kern: l = terminal long
!!!ENC: Benjamin Ory
!!!END: 2024/2/26
!!!EED: Benjamin Ory
!!!EEV: 2024/02/26
!!!YEC: Copyright 2024 Benjamin Ory, All Rights Reserved
!!!ONB: Translated from MusicXML on 2024/02/26